flags/us-ar.svg

<svg width="512" height="512" viewBox="0 0 512 512" fill="none" xmlns="http://www.w3.org/2000/svg">
<rect width="512" height="512" fill="var(--flag-palette-bright-red, #d80027)"/>
<path d="M256 70L5 256L256 442L507 256L256 70Z" fill="var(--flag-palette-navy, #002266)"/>
<path d="M256 129.999L84.9998 255.999L256 381.999L427 255.999L256 129.999ZM242.6 124.299L277.3 99.2992H234.6L269.3 124.299L256 83.6992L242.6 124.299ZM46.4998 277.399L73.6998 244.299L32.2998 255.399L72.3998 270.399L48.9998 234.599L46.4998 277.399ZM465.5 277.399L438.3 244.299L479.7 255.399L439.6 270.399L463 234.599L465.5 277.399ZM319.8 173.399L347 140.299L305.6 151.399L345.7 166.399L322.3 130.599L319.8 173.399ZM390.1 225.399L417.3 192.299L375.9 203.399L416 218.399L392.6 182.599L390.1 225.399ZM192.2 173.399L165 140.299L206.4 151.399L166.3 166.399L189.7 130.599L192.2 173.399ZM121.9 225.399L94.6998 192.299L136.1 203.399L95.9998 218.399L119.4 182.599L121.9 225.399ZM108.9 329.399L136.1 296.299L94.5998 307.399L134.8 322.399L111.4 286.599L108.9 329.399ZM179.2 381.399L206.4 348.299L165 359.399L205.1 374.399L181.7 338.599L179.2 381.399ZM242.7 428.299L277.4 403.399H234.7L269.4 428.299L256.1 387.699L242.7 428.299ZM403.1 329.399L375.9 296.299L417.4 307.399L377.2 322.399L400.6 286.599L403.1 329.399ZM332.8 381.399L305.6 348.299L347 359.399L306.9 374.399L330.3 338.599L332.8 381.399Z" fill="var(--flag-palette-white, #eeeeee)"/>
<path d="M242.7 204.7L277.4 179.7H234.7L269.4 204.7L256.1 164L242.7 204.7ZM203.5 307.7L238.2 282.7H195.5L230.2 307.7L216.9 267L203.5 307.7ZM281.7 307.7L316.4 282.7H273.7L308.4 307.7L295.1 267L281.7 307.7ZM242.6 303.3L277.3 328.3H234.6L269.3 303.3L256 344L242.6 303.3ZM160 223H352V255H160V223Z" fill="var(--flag-palette-navy, #002266)"/>
</svg>

<svg xmlns="http://www.w3.org/2000/svg" width="512" height="512" fill="none"><g clip-path="url(#a)"><path fill="var(--flag-palette-bright-red, #d80027)" d="M0 0h512v512H0z"/><path fill="#026" d="M256 70 5 256l251 186 251-186z"/><path fill="#EEE" d="M256 130 85 256l171 126 171-126zm-13.4-5.7 34.7-25h-42.7l34.7 25L256 83.7zM46.5 277.4l27.2-33.1-41.4 11.1 40.1 15L49 234.6zm419 0-27.2-33.1 41.4 11.1-40.1 15 23.4-35.8zm-145.7-104 27.2-33.1-41.4 11.1 40.1 15-23.4-35.8zm70.3 52 27.2-33.1-41.4 11.1 40.1 15-23.4-35.8zm-197.9-52L165 140.3l41.4 11.1-40.1 15 23.4-35.8zm-70.3 52-27.2-33.1 41.4 11.1-40.1 15 23.4-35.8zm-13 104 27.2-33.1-41.5 11.1 40.2 15-23.4-35.8zm70.3 52 27.2-33.1-41.4 11.1 40.1 15-23.4-35.8zm63.5 46.9 34.7-24.9h-42.7l34.7 24.9-13.3-40.6zm160.4-98.9-27.2-33.1 41.5 11.1-40.2 15 23.4-35.8zm-70.3 52-27.2-33.1 41.4 11.1-40.1 15 23.4-35.8z"/><path fill="#026" d="m242.7 204.7 34.7-25h-42.7l34.7 25-13.3-40.7zm-39.2 103 34.7-25h-42.7l34.7 25-13.3-40.7zm78.2 0 34.7-25h-42.7l34.7 25-13.3-40.7zm-39.1-4.4 34.7 25h-42.7l34.7-25L256 344zM160 223h192v32H160z"/></g><defs><clipPath id="a"><path fill="#fff" d="M0 0h512v512H0z"/></clipPath></defs></svg>
